public/img/participation-5.svg

<svg width="101" height="107" viewBox="0 0 101 107" fill="none" xmlns="http://www.w3.org/2000/svg">
<g clip-path="url(#clip0)">
<path d="M53.7266 23.5381C53.7266 29.5161 65.6175 32.6448 77.363 32.6448C89.1085 32.6448 100.999 29.5161 100.999 23.5381C100.999 11.5819 53.7266 11.5819 53.7266 23.5381Z" fill="#FFD100"/>
<path d="M100.122 32.3584C99.5807 32.0312 98.9006 32.008 98.3378 32.3034C93.4408 34.8718 85.9923 36.2876 77.363 36.2876C68.7337 36.2876 61.2852 34.8718 56.3882 32.3034C55.8254 32.0082 55.1453 32.0312 54.6037 32.3584C54.0586 32.6874 53.7266 33.2798 53.7266 33.9166V34.4661C53.7266 40.4441 65.6175 43.5728 77.363 43.5728C89.1085 43.5728 100.999 40.4441 100.999 34.4661V33.9166C100.999 33.2798 100.667 32.6874 100.122 32.3584Z" fill="#FFD100"/>
<path d="M31.9102 59.9651C31.9102 65.9433 43.8011 69.0718 55.5466 69.0718C67.2921 69.0718 79.183 65.9431 79.183 59.9651C79.1829 48.0089 31.9102 48.0089 31.9102 59.9651Z" fill="#FFD100"/>
<path d="M78.3059 68.7856C77.7625 68.46 77.0842 68.4352 76.5214 68.7306C71.6244 71.299 64.1759 72.7148 55.5466 72.7148C46.9173 72.7148 39.4688 71.299 34.5718 68.7306C34.009 68.4353 33.3289 68.4602 32.7873 68.7856C32.2422 69.1146 31.9102 69.7069 31.9102 70.3437V70.8933C31.9102 76.8715 43.8011 80 55.5466 80C67.2921 80 79.183 76.8713 79.183 70.8933V70.3437C79.1829 69.7069 78.8508 69.1146 78.3059 68.7856Z" fill="#FFD100"/>
<path d="M44.6364 18.0739C47.092 18.0739 49.5477 17.9351 51.9358 17.6595C52.3246 17.615 52.6887 17.4461 52.9746 17.1775C55.7284 14.5806 60.4337 12.665 66.5808 11.6387C67.2307 11.5301 67.7723 11.0784 67.9942 10.4559C68.1824 9.93127 68.2729 9.44394 68.2729 8.96718C68.2727 -2.98919 21 -2.98919 21 8.96701C21 14.9452 32.8909 18.0739 44.6364 18.0739Z" fill="#FFD100"/>
<path d="M44.6364 29.002C46.1421 29.002 47.6105 28.9504 49.0328 28.8561C49.6064 28.8169 50.1266 28.5111 50.4391 28.0272C50.7498 27.5451 50.8154 26.9422 50.6167 26.4032C50.2633 25.4516 50.0912 24.5143 50.1 23.4401C50.1 22.942 49.8958 22.4654 49.5353 22.1221C49.1767 21.7788 48.6706 21.5707 48.1947 21.6205C47.0068 21.6774 45.8189 21.7164 44.6364 21.7164C36.0072 21.7164 28.5586 20.3006 23.6616 17.7322C23.0988 17.437 22.4187 17.4602 21.8772 17.7873C21.332 18.1166 21 18.7089 21 19.3457V19.8953C21 25.8735 32.8909 29.002 44.6364 29.002Z" fill="#FFD100"/>
<path d="M44.6364 39.9302C46.1421 39.9302 47.6105 39.8785 49.0328 39.7843C49.6064 39.7451 50.1266 39.4393 50.4391 38.9554C50.7498 38.4733 50.8154 37.8704 50.6167 37.3314C50.2633 36.3798 50.0912 35.4425 50.0912 34.3683C50.0912 33.8702 49.887 33.3936 49.5264 33.0503C49.1678 32.707 48.6706 32.5113 48.1858 32.5486C47.0015 32.6056 45.8172 32.6446 44.6364 32.6446C36.0072 32.6446 28.5586 31.2288 23.6616 28.6604C23.0988 28.3652 22.4187 28.3884 21.8772 28.7155C21.332 29.0448 21 29.6371 21 30.2738V30.8233C21 36.8015 32.8909 39.9302 44.6364 39.9302Z" fill="#FFD100"/>
<path d="M100.124 54.2146C99.579 53.8821 98.9025 53.8642 98.3396 54.1596C94.9181 55.9543 90.1044 57.2082 84.421 57.7828C83.4622 57.8806 82.7786 59.0012 82.8194 59.9653C82.8194 60.8885 82.6702 61.7706 82.3648 62.6581C82.1623 63.2469 82.2743 63.8997 82.6614 64.3871C83.0094 64.8229 83.5332 65.0736 84.0836 65.0736C84.1476 65.0736 84.2132 65.0701 84.279 65.0629C94.7495 63.9316 101.001 60.6643 101.001 56.3225V55.7728C101.001 55.1361 100.669 54.5438 100.124 54.2146Z" fill="#FFD100"/>
<path d="M55.5446 47.2156L56.7503 47.2369C56.761 47.2369 56.7716 47.2369 56.7823 47.2369C57.631 47.2369 58.3679 46.6482 58.556 45.8175C58.7461 44.9745 58.32 44.1154 57.535 43.7578L57.1462 43.5834C56.887 43.4695 56.626 43.3557 56.3845 43.2293C55.818 42.9322 55.147 42.959 54.6018 43.288C54.0584 43.617 53.7266 44.2076 53.7266 44.8442V45.3938C53.7264 46.401 54.5396 47.2156 55.5446 47.2156Z" fill="#FFD100"/>
<path d="M100.121 43.2866C99.5795 42.9594 98.8994 42.9362 98.3366 43.2316C93.4396 45.8 85.9911 47.2158 77.3618 47.2158L76.1614 47.1926C75.4282 47.1304 74.551 47.7761 74.3645 48.6173C74.1763 49.4586 74.6025 50.3158 75.3855 50.6716C77.3546 51.568 78.9634 52.6335 80.1654 53.8376C80.508 54.1792 80.9698 54.3694 81.451 54.3694C81.4883 54.3694 81.5274 54.3677 81.5664 54.3658C90.5294 53.7967 100.998 51.1056 100.998 45.3943V44.8448C100.998 44.2079 100.666 43.6156 100.121 43.2866Z" fill="#FFD100"/>
<path d="M36.2059 50.2928C36.4331 50.2928 36.6605 50.2502 36.8753 50.1648C40.0785 48.8966 43.9846 48.0232 48.4875 47.5698C49.4463 47.4738 50.1317 46.2607 50.0908 45.2966C50.0908 44.7985 49.8866 44.322 49.5261 43.9787C49.1675 43.6354 48.6702 43.4521 48.1855 43.477C47.0012 43.534 45.8168 43.573 44.6361 43.573C36.0068 43.573 28.5583 42.1572 23.6613 39.5888C23.0985 39.2936 22.4184 39.3167 21.8768 39.6438C21.332 39.973 21 40.5651 21 41.202V41.7515C21 45.7766 26.5895 48.9639 35.9538 50.2749C36.0373 50.2874 36.1226 50.2928 36.2059 50.2928Z" fill="#FFD100"/>
</g>
<path d="M64 98.1551L63.9645 98.125L64 98.0849L63.0984 97.3221L56.7921 91.5215C56.7921 91.5215 56.6807 91.6369 56.4983 91.8075L56.3311 91.9882C54.8926 93.3179 50.2832 97.1666 44.8735 97.2419C44.757 97.2419 44.6404 97.2419 44.5239 97.2419C41.6772 96.9358 38.9015 95.4204 36.0852 92.6154C31.4099 87.9388 26.2078 85.4148 20.6107 85.0786C20.4537 85.0786 20.2966 85.0786 20.1447 85.0786C19.3027 85.0046 18.4568 84.9828 17.612 85.0133C9.18338 85.3546 2.92268 90.9545 0.795251 93.1122C0.339375 93.5186 0.0658488 93.8096 0.00506529 93.8598L0.0354571 93.8899C0.0262093 93.9068 0.0142314 93.9221 0 93.9351L0.901623 94.6878L7.20792 100.493L7.5017 100.202L7.66886 100.022C9.10233 98.687 13.7168 94.8383 19.1266 94.7681C19.2431 94.7681 19.3545 94.7681 19.471 94.7681C22.3228 95.0741 25.0935 96.5895 27.9098 99.3945C32.5901 104.051 37.782 106.575 43.3792 106.921C43.5311 106.921 43.6882 106.921 43.8452 106.921C44.6872 106.995 45.5331 107.017 46.3778 106.987C54.8065 106.645 61.0672 101.05 63.1946 98.8927C63.6353 98.4712 63.9139 98.1852 63.9696 98.125" fill="#EFC825"/>
<defs>
<clipPath id="clip0">
<rect x="21" width="80" height="80" fill="white"/>
</clipPath>
</defs>
</svg>

<svg width="101" height="107" fill="none" xmlns="http://www.w3.org/2000/svg"><g clip-path="url(#clip0)" fill="#FFD100"><path d="M53.727 23.538c0 5.978 11.89 9.107 23.636 9.107 11.746 0 23.636-3.129 23.636-9.107 0-11.956-47.272-11.956-47.272 0z"/><path d="M100.122 32.358a1.822 1.822 0 00-1.784-.055c-4.897 2.569-12.346 3.985-20.975 3.985-8.63 0-16.078-1.416-20.975-3.985a1.82 1.82 0 00-2.662 1.613v.55c0 5.978 11.892 9.107 23.637 9.107 11.746 0 23.636-3.129 23.636-9.107v-.55a1.82 1.82 0 00-.877-1.558zM31.91 59.965c0 5.978 11.891 9.107 23.637 9.107 11.745 0 23.636-3.129 23.636-9.107 0-11.956-47.273-11.956-47.273 0z"/><path d="M78.306 68.786a1.827 1.827 0 00-1.785-.055c-4.897 2.568-12.345 3.984-20.974 3.984-8.63 0-16.078-1.416-20.975-3.984a1.82 1.82 0 00-2.662 1.613v.55C31.91 76.87 43.801 80 55.547 80c11.745 0 23.636-3.129 23.636-9.107v-.55a1.82 1.82 0 00-.877-1.557zm-33.67-50.712a63.83 63.83 0 007.3-.415 1.819 1.819 0 001.039-.482c2.753-2.596 7.459-4.512 13.606-5.538a1.818 1.818 0 001.413-1.183 4.366 4.366 0 00.279-1.489C68.273-2.989 21-2.989 21 8.967c0 5.978 11.89 9.107 23.636 9.107zm0 10.928a66.49 66.49 0 004.397-.146 1.82 1.82 0 001.584-2.453 8.05 8.05 0 01-.517-2.963 1.82 1.82 0 00-.565-1.318c-.358-.343-.864-.551-1.34-.502a74.456 74.456 0 01-3.559.096c-8.629 0-16.077-1.415-20.974-3.984A1.82 1.82 0 0021 19.346v.55c0 5.977 11.89 9.106 23.636 9.106zm0 10.928a66.04 66.04 0 004.397-.146 1.82 1.82 0 001.584-2.453 8.24 8.24 0 01-.526-2.963 1.82 1.82 0 00-.565-1.318c-.358-.343-.855-.539-1.34-.501a73.888 73.888 0 01-3.55.096c-8.629 0-16.077-1.416-20.974-3.985A1.82 1.82 0 0021 30.273v.55c0 5.978 11.89 9.107 23.636 9.107zm55.488 14.285a1.809 1.809 0 00-1.784-.055c-3.422 1.794-8.236 3.048-13.919 3.623-.959.098-1.642 1.218-1.602 2.182 0 .923-.149 1.806-.454 2.693a1.82 1.82 0 001.914 2.405c10.47-1.131 16.722-4.399 16.722-8.74v-.55a1.82 1.82 0 00-.877-1.558zm-44.579-6.999l1.205.02h.032a1.822 1.822 0 00.753-3.48l-.389-.173c-.259-.114-.52-.227-.761-.354a1.819 1.819 0 00-2.658 1.615v.55c0 1.007.813 1.822 1.818 1.822zm44.576-3.929a1.822 1.822 0 00-1.784-.055C93.44 45.8 85.99 47.216 77.362 47.216l-1.2-.023c-.734-.063-1.611.583-1.797 1.424a1.82 1.82 0 001.02 2.055c1.97.896 3.578 1.962 4.78 3.166a1.82 1.82 0 001.401.528c8.963-.57 19.432-3.26 19.432-8.972v-.55a1.82 1.82 0 00-.877-1.557zm-63.915 7.006c.227 0 .454-.043.67-.128 3.203-1.268 7.109-2.142 11.611-2.595.96-.096 1.645-1.31 1.604-2.273a1.82 1.82 0 00-1.906-1.82 73.892 73.892 0 01-3.549.096c-8.63 0-16.078-1.416-20.975-3.984A1.82 1.82 0 0021 41.202v.55c0 4.025 5.59 7.212 14.954 8.523.083.012.169.018.252.018z"/></g><path d="M64 98.155l-.035-.03.035-.04-.902-.763-6.306-5.8s-.111.115-.294.285l-.167.181c-1.438 1.33-6.048 5.179-11.458 5.254h-.35c-2.846-.306-5.622-1.822-8.438-4.627-4.675-4.676-9.877-7.2-15.474-7.536h-.466a20.487 20.487 0 00-2.533-.066c-8.429.342-14.69 5.941-16.817 8.1-.456.406-.73.697-.79.747l.03.03a.175.175 0 01-.035.045l.902.753 6.306 5.805.294-.291.167-.18c1.433-1.335 6.048-5.184 11.458-5.254h.344c2.852.306 5.622 1.822 8.439 4.626 4.68 4.657 9.872 7.181 15.47 7.527h.465a20.59 20.59 0 002.533.066c8.428-.342 14.69-5.937 16.817-8.094.44-.422.719-.708.775-.768" fill="#EFC825"/><defs><clipPath id="clip0"><path fill="#fff" d="M21 0h80v80H21z"/></clipPath></defs></svg>
